resources/haticons/SVG/picasa.svg

<svg height="24" width="24" xmlns="http://www.w3.org/2000/svg"><path d="m23.325 15.9h-4.875v-14.025c3.375 2.175 5.55 5.85 5.55 10.125 0 1.35-.225 2.7-.675 3.9zm-6.675-7.125-8.55-8.1c1.2-.45 2.55-.675 3.9-.675 1.725 0 3.3.375 4.8.975zm-5.85-3.45-10.5 9.375c-.225-.825-.3-1.8-.3-2.7 0-4.65 2.625-8.625 6.45-10.65zm-5.1 6.825v10.05a12.24 12.24 0 0 1 -4.875-5.775zm1.35 5.025 15.75-.075c-1.875 4.125-6 6.9-10.8 6.9-1.8 0-3.45-.375-5.025-1.05z"/></svg>

<svg height="24" width="24" xmlns="http://www.w3.org/2000/svg"><path d="M23.325 15.9H18.45V1.875C21.825 4.05 24 7.725 24 12c0 1.35-.225 2.7-.675 3.9zM16.65 8.775L8.1.675C9.3.225 10.65 0 12 0c1.725 0 3.3.375 4.8.975zm-5.85-3.45L.3 14.7C.075 13.875 0 12.9 0 12 0 7.35 2.625 3.375 6.45 1.35zM5.7 12.15V22.2a12.24 12.24 0 0 1-4.875-5.775zm1.35 5.025L22.8 17.1c-1.875 4.125-6 6.9-10.8 6.9-1.8 0-3.45-.375-5.025-1.05z"/></svg>
